material/.icons/material/midi.svg

<svg xmlns="http://www.w3.org/2000/svg" viewBox="0 0 24 24"><path d="M20.15 8.26H22v7.48h-1.85M13 8.26h5.43c.57 0 .87.48.87 1.04v5.51c0 .69-.3.93-.92.93H13V11h1.87v2.91h2.63V9.95H13m-2.68-1.69h1.82v7.48h-1.82M2 8.26h6.55c.55 0 .86.48.86 1.04v6.44H7.59v-5.59H6.5v5.59H4.87v-5.59H3.83v5.59H2z"/></svg>

<?xml version="1.0" encoding="UTF-8"?><!DOCTYPE svg PUBLIC "-//W3C//DTD SVG 1.1//EN" "http://www.w3.org/Graphics/SVG/1.1/DTD/svg11.dtd"><svg xmlns="http://www.w3.org/2000/svg" xmlns:xlink="http://www.w3.org/1999/xlink" version="1.1" id="mdi-midi" width="24" height="24" viewBox="0 0 24 24"><path d="M20.15 8.26H22V15.74H20.15M13 8.26H18.43C19 8.26 19.3 8.74 19.3 9.3V14.81C19.3 15.5 19 15.74 18.38 15.74H13V11H14.87V13.91H17.5V9.95H13M10.32 8.26H12.14V15.74H10.32M2 8.26H8.55C9.1 8.26 9.41 8.74 9.41 9.3V15.74H7.59V10.15H6.5V15.74H4.87V10.15H3.83V15.74H2Z" /></svg>
